build/Karasa-Jaga/scalable/status/printer-warning-symbolic.svg

<svg height="16" width="16" xmlns="http://www.w3.org/2000/svg"><g fill="#bebebe"><path d="m4.4672118.8613281v5.5429688h.7089844v-4.8652344h5.6445318v4.8652344h.677734v-5.5429688z" stroke-width="1.056329"/><path d="m2.6542969 5.3730469-.125.34375h-.46875c-.4294694.4522647-.6352799.8914838-.8125 1.34375-.1625648 2.0729246-.1625648 2.9584401 0 5.0312501h.21875 1.8125v-1.28125c0-.06541.012822-.129403.03125-.1875v-.09375c0-.264852.229098-.5.5-.5h5.3261719l.2128906-.3652345h-5.5390625c-.4825665 0-.8652344.3894535-.8652344.8652345v.082031c-.014331.06317-.03125.123745-.03125.199219v.916015h-1.3164063c-.1287214-1.7563806-.1331324-2.7021186.0117188-4.570312.1509434-.3809701.3404583-.7196692.6484375-1.0742188h.2714844a.36580844.36580844 0 0 0 .34375-.2402343l.0371093-.1035157h.3164063a.36580844.36580844 0 0 0 .3652344.34375h.0722656v.5410157a.36580844.36580844 0 0 0 .3652344.3652343h7.9062501a.36580844.36580844 0 0 0 .365234-.3652343v-.5410157h.041016a.36580844.36580844 0 0 0 .365234-.34375h.347657l.037109.1035157a.36580844.36580844 0 0 0 .34375.2402343h.267578c.325586.4054692.472827.7098341.652344 1.0839844.10977 1.4172431.109755 2.3764171.058593 3.4941404l.357422.615235c.097156-1.5075014.083739-2.4509348-.054687-4.2148441-.208087-.425576-.337074-.7975356-.8125-1.34375h-.46875l-.125-.34375h-1.0625l.09375.34375h-.40625v.90625h-7.9062501v-.90625h-.4375l.0625-.34375zm10.7187501 3.4160156c-.013223.0000088-.024039.0071659-.037109.0078125l.246093.4257812c.108013.0698798.177337.1880789.189453.328125l.242188.4179688c.076415-.1121424.130859-.2350209.130859-.3769531 0-.4098035-.329348-.8027344-.771484-.8027344zm-12.1875001 3.3339845.1875.84375c.012532.07898.058638.08683.125.09375l1.9375-.03125-.03125-.875zm.4570312.371094 1.4082031.021484.0058594.154297-1.3691406.021484z"/><path d="m4.7851562 10.931641-.4550781 4.207031h2.1113281c-.0017037-.11874.0144629-.235052.0390626-.351563h-1.5410157l.3808594-3.478515h3.0761719l.21875-.376953z"/><path d="m4.1679688 6.9960938v2.1308593h5.4921874l.5605468-.9667969c.264939-.4583261.75173-.7619611 1.285156-.7910156.109457-.0060149.216154.0111906.322266.0273438v-.4003906z" opacity=".5"/></g><path d="m11.557012 8.3052296c-.219488.011955-.416764.1331568-.526356.3235402l-3.5710153 6.1641652c-.1160245.200869-.1161791.446298 0 .647081.1161764.200781.3304554.323769.5625734.32354h7.1420299c.232119.000309.446399-.122759.562574-.32354.116175-.200783.115981-.446212 0-.647081l-3.571015-6.1641652c-.122249-.2123861-.353947-.3369951-.598791-.3235402zm-.564988 1.5621685h1.202411v3.5347969h-1.202411zm.601205 4.0780549c.167635.000001.310745.03855.427363.115895.116615.07734.173841.347573.173843.458751-.000002.106345-.05723.374162-.173843.456337-.116618.07734-.259728.115895-.427363.115895-.167636 0-.310747-.03855-.427363-.115895-.116616-.08217-.173843-.349992-.173842-.456337-.000001-.111178.05723-.381409.173842-.458751.116616-.07734.259727-.115894.427363-.115895z" fill="#ff7b1d" fill-rule="evenodd"/></svg>

<?xml version="1.0" encoding="UTF-8" standalone="no"?>
<!-- Created with Inkscape (http://www.inkscape.org/) -->

<svg
   xmlns:dc="http://purl.org/dc/elements/1.1/"
   xmlns:cc="http://creativecommons.org/ns#"
   xmlns:rdf="http://www.w3.org/1999/02/22-rdf-syntax-ns#"
   xmlns:svg="http://www.w3.org/2000/svg"
   xmlns="http://www.w3.org/2000/svg"
   xmlns:sodipodi="http://sodipodi.sourceforge.net/DTD/sodipodi-0.dtd"
   xmlns:inkscape="http://www.inkscape.org/namespaces/inkscape"
   id="svg7854"
   height="16"
   width="16"
   version="1.0"
   inkscape:version="0.92.2 (unknown)"
   sodipodi:docname="printer-warning-symbolic.svg"
   inkscape:export-filename="/usr/share/icons/Karasa Jaga/scalable/status/media-playlist-repeat.png"
   inkscape:export-xdpi="90"
   inkscape:export-ydpi="90">
  <metadata
     id="metadata5314">
    <rdf:RDF>
      <cc:Work
         rdf:about="">
        <dc:format>image/svg+xml</dc:format>
        <dc:type
           rdf:resource="http://purl.org/dc/dcmitype/StillImage" />
        <dc:title></dc:title>
      </cc:Work>
    </rdf:RDF>
  </metadata>
  <sodipodi:namedview
     pagecolor="#ffffff"
     bordercolor="#666666"
     borderopacity="1"
     objecttolerance="10"
     gridtolerance="10"
     guidetolerance="10"
     inkscape:pageopacity="0"
     inkscape:pageshadow="2"
     inkscape:window-width="1366"
     inkscape:window-height="706"
     id="namedview5312"
     showgrid="false"
     inkscape:zoom="13.906434"
     inkscape:cx="19.383768"
     inkscape:cy="5.0688343"
     inkscape:window-x="0"
     inkscape:window-y="0"
     inkscape:window-maximized="1"
     inkscape:current-layer="svg7854" />
  <defs
     id="defs7856">
    <linearGradient
       id="linearGradient5841">
      <stop
         style="stop-color:#37e700;stop-opacity:1;"
         offset="0"
         id="stop5843" />
      <stop
         id="stop5849"
         offset="0.5"
         style="stop-color:#3dfe00;stop-opacity:1;" />
      <stop
         style="stop-color:#2aad00;stop-opacity:1;"
         offset="1"
         id="stop5845" />
    </linearGradient>
    <linearGradient
       id="linearGradient4117"
       y2="34.612"
       gradientUnits="userSpaceOnUse"
       x2="22.402"
       y1="15.722"
       x1="22.146999">
      <stop
         id="stop4113"
         style="stop-color:#fff"
         offset="0" />
      <stop
         id="stop4115"
         style="stop-color:#fff;stop-opacity:0"
         offset="1" />
    </linearGradient>
    <linearGradient
       id="linearGradient3696"
       y2="21"
       gradientUnits="userSpaceOnUse"
       x2="15"
       y1="2"
       x1="15">
      <stop
         id="stop3700"
         style="stop-color:#eeeeec"
         offset="0" />
      <stop
         id="stop3702"
         style="stop-color:#babdb6"
         offset=".79220" />
      <stop
         id="stop3704"
         style="stop-color:#a1a59b"
         offset="1" />
    </linearGradient>
    <filter
       id="filter7554"
       color-interpolation-filters="sRGB">
      <feBlend
         mode="darken"
         in2="BackgroundImage"
         id="feBlend7556" />
    </filter>
    <filter
       id="filter7554-7"
       color-interpolation-filters="sRGB">
      <feBlend
         mode="darken"
         in2="BackgroundImage"
         id="feBlend7556-6" />
    </filter>
  </defs>
  <g
     id="g2358">
    <path
       id="rect363"
       d="M 4.4672118,0.8613281 V 6.4042969 H 5.1761962 V 1.5390625 h 5.6445318 v 4.8652344 h 0.677734 V 0.8613281 Z"
       style="fill:#bebebe;fill-opacity:1;stroke-width:1.05632913"
       inkscape:connector-curvature="0" />
    <path
       id="polygon76"
       d="M 2.6542969 5.3730469 L 2.5292969 5.7167969 L 2.0605469 5.7167969 C 1.6310775 6.1690616 1.425267 6.6082807 1.2480469 7.0605469 C 1.0854821 9.1334715 1.0854821 10.018987 1.2480469 12.091797 L 1.4667969 12.091797 L 3.2792969 12.091797 L 3.2792969 10.810547 C 3.2792969 10.745137 3.2921189 10.681144 3.3105469 10.623047 L 3.3105469 10.529297 C 3.3105469 10.264445 3.5396449 10.029297 3.8105469 10.029297 L 9.1367188 10.029297 L 9.3496094 9.6640625 L 3.8105469 9.6640625 C 3.3279804 9.6640625 2.9453125 10.053516 2.9453125 10.529297 L 2.9453125 10.611328 C 2.9309815 10.674498 2.9140625 10.735073 2.9140625 10.810547 L 2.9140625 11.726562 L 1.5976562 11.726562 C 1.4689348 9.9701814 1.4645238 9.0244434 1.609375 7.15625 C 1.7603184 6.7752799 1.9498333 6.4365808 2.2578125 6.0820312 L 2.5292969 6.0820312 A 0.36580844 0.36580844 0 0 0 2.8730469 5.8417969 L 2.9101562 5.7382812 L 3.2265625 5.7382812 A 0.36580844 0.36580844 0 0 0 3.5917969 6.0820312 L 3.6640625 6.0820312 L 3.6640625 6.6230469 A 0.36580844 0.36580844 0 0 0 4.0292969 6.9882812 L 11.935547 6.9882812 A 0.36580844 0.36580844 0 0 0 12.300781 6.6230469 L 12.300781 6.0820312 L 12.341797 6.0820312 A 0.36580844 0.36580844 0 0 0 12.707031 5.7382812 L 13.054688 5.7382812 L 13.091797 5.8417969 A 0.36580844 0.36580844 0 0 0 13.435547 6.0820312 L 13.703125 6.0820312 C 14.028711 6.4875004 14.175952 6.7918653 14.355469 7.1660156 C 14.465239 8.5832587 14.465224 9.5424327 14.414062 10.660156 L 14.771484 11.275391 C 14.86864 9.7678896 14.855223 8.8244562 14.716797 7.0605469 C 14.50871 6.6349709 14.379723 6.2630113 13.904297 5.7167969 L 13.435547 5.7167969 L 13.310547 5.3730469 L 12.248047 5.3730469 L 12.341797 5.7167969 L 11.935547 5.7167969 L 11.935547 6.6230469 L 4.0292969 6.6230469 L 4.0292969 5.7167969 L 3.5917969 5.7167969 L 3.6542969 5.3730469 L 2.6542969 5.3730469 z M 13.373047 8.7890625 C 13.359824 8.7890713 13.349008 8.7962284 13.335938 8.796875 L 13.582031 9.2226562 C 13.690044 9.292536 13.759368 9.4107351 13.771484 9.5507812 L 14.013672 9.96875 C 14.090087 9.8566076 14.144531 9.7337291 14.144531 9.5917969 C 14.144531 9.1819934 13.815183 8.7890625 13.373047 8.7890625 z M 1.1855469 12.123047 L 1.3730469 12.966797 C 1.3855789 13.045777 1.4316849 13.053627 1.4980469 13.060547 L 3.4355469 13.029297 L 3.4042969 12.154297 L 1.1855469 12.123047 z M 1.6425781 12.494141 L 3.0507812 12.515625 L 3.0566406 12.669922 L 1.6875 12.691406 L 1.6425781 12.494141 z "
       style="fill:#bebebe;fill-opacity:1" />
    <path
       id="rect4186"
       d="M 4.7851562 10.931641 L 4.3300781 15.138672 L 6.4414062 15.138672 C 6.4397025 15.019932 6.4558691 14.90362 6.4804688 14.787109 L 4.9394531 14.787109 L 5.3203125 11.308594 L 8.3964844 11.308594 L 8.6152344 10.931641 L 4.7851562 10.931641 z "
       style="fill:#bebebe;fill-opacity:1" />
    <path
       id="path3850-3"
       d="M 4.1679688 6.9960938 L 4.1679688 9.1269531 L 9.6601562 9.1269531 L 10.220703 8.1601562 C 10.485642 7.7018301 10.972433 7.3981951 11.505859 7.3691406 C 11.615316 7.3631257 11.722013 7.3803312 11.828125 7.3964844 L 11.828125 6.9960938 L 4.1679688 6.9960938 z "
       style="opacity:0.5;fill:#bebebe;fill-opacity:1;stroke:none;stroke-width:0.63900262" />
    <path
       style="fill:#ff7b1d;fill-opacity:1;fill-rule:evenodd;stroke:none"
       id="path4137"
       d="m 11.557012,8.3052296 c -0.219488,0.011955 -0.416764,0.1331568 -0.526356,0.3235402 L 7.4596407,14.792935 c -0.1160245,0.200869 -0.1161791,0.446298 0,0.647081 0.1161764,0.200781 0.3304554,0.323769 0.5625734,0.32354 h 7.1420299 c 0.232119,3.09e-4 0.446399,-0.122759 0.562574,-0.32354 0.116175,-0.200783 0.115981,-0.446212 0,-0.647081 L 12.155803,8.6287698 C 12.033554,8.4163837 11.801856,8.2917747 11.557012,8.3052296 Z m -0.564988,1.5621685 h 1.202411 v 3.5347969 h -1.202411 z m 0.601205,4.0780549 c 0.167635,10e-7 0.310745,0.03855 0.427363,0.115895 0.116615,0.07734 0.173841,0.347573 0.173843,0.458751 -2e-6,0.106345 -0.05723,0.374162 -0.173843,0.456337 -0.116618,0.07734 -0.259728,0.115895 -0.427363,0.115895 -0.167636,0 -0.310747,-0.03855 -0.427363,-0.115895 -0.116616,-0.08217 -0.173843,-0.349992 -0.173842,-0.456337 -1e-6,-0.111178 0.05723,-0.381409 0.173842,-0.458751 0.116616,-0.07734 0.259727,-0.115894 0.427363,-0.115895 z"
       inkscape:connector-curvature="0" />
  </g>
</svg>
